src/icon/file/format-rar/icon_format-rar_m_white.svg

<svg width="24" height="24" viewBox="0 0 24 24" fill="none" xmlns="http://www.w3.org/2000/svg"><path d="M0 0h24v24H0z"/><path fill-rule="evenodd" clip-rule="evenodd" d="M20 8h-1V4c0-1.103-.897-2-2-2H7.707L3 6.707V7H2v-.707L7.293 1H17c1.654 0 3 1.346 3 3v4zm-3 15H5c-1.654 0-3-1.346-3-3v-1h1v1c0 1.103.897 2 2 2h12c1.103 0 2-.897 2-2v-1h1v1c0 1.654-1.346 3-3 3z" fill="#fff"/><path d="M4.951 14.133H2.942v2.876H2V9.9h2.692c.801 0 1.416.183 1.846.548.433.364.65.895.65 1.592a1.9 1.9 0 01-.362 1.157c-.237.329-.57.574-.996.737l1.67 3.018v.058H6.494l-1.543-2.876zm-2.009-.766h1.78c.465 0 .835-.12 1.108-.362.277-.24.415-.563.415-.966 0-.44-.132-.777-.395-1.011-.26-.235-.638-.353-1.133-.357H2.942v2.696zm10.601 1.787h-2.979l-.669 1.855H8.93l2.714-7.11h.82l2.72 7.11h-.961l-.68-1.855zm-2.695-.772h2.416l-1.21-3.325-1.207 3.325zm8.791-.249h-2.061v2.876h-.943V9.9h2.745c.8 0 1.416.183 1.846.548.433.364.649.895.649 1.592 0 .442-.12.828-.361 1.157-.238.329-.57.574-.996.737l1.67 3.018v.058h-1.006l-1.543-2.876zm-2.061-.766h1.831c.466 0 .835-.12 1.109-.362.276-.24.415-.563.415-.966 0-.44-.132-.777-.396-1.011-.26-.235-.638-.353-1.133-.357h-1.826v2.696z" fill="#fff" fill-opacity=".9"/></svg>

<svg xmlns="http://www.w3.org/2000/svg" width="24" height="24" viewBox="0 0 24 24" fill="none"><rect width="24" height="24" fill="none"/><path fill-rule="evenodd" clip-rule="evenodd" d="M20 8H19V4C19 2.897 18.103 2 17 2H7.707L3 6.707V7H2V6.293L7.293 1H17C18.654 1 20 2.346 20 4V8ZM17 23H5C3.346 23 2 21.654 2 20V19H3V20C3 21.103 3.897 22 5 22H17C18.103 22 19 21.103 19 20V19H20V20C20 21.654 18.654 23 17 23Z" fill="white"/><path d="M4.951 14.133H2.942V17.009H2V9.89999H4.692C5.493 9.89999 6.108 10.083 6.538 10.448C6.971 10.812 7.188 11.343 7.188 12.04C7.19691 12.4548 7.06977 12.8612 6.826 13.197C6.589 13.526 6.256 13.771 5.83 13.934L7.5 16.952V17.01H6.494L4.951 14.134V14.133ZM2.942 13.367H4.722C5.187 13.367 5.557 13.247 5.83 13.005C6.107 12.765 6.245 12.442 6.245 12.039C6.245 11.599 6.113 11.262 5.85 11.028C5.59 10.793 5.212 10.675 4.717 10.671H2.942V13.367V13.367ZM13.543 15.154H10.564L9.895 17.009H8.93L11.644 9.89899H12.464L15.184 17.009H14.223L13.543 15.154ZM10.848 14.382H13.264L12.054 11.057L10.847 14.382H10.848ZM19.639 14.133H17.578V17.009H16.635V9.89999H19.38C20.18 9.89999 20.796 10.083 21.226 10.448C21.659 10.812 21.875 11.343 21.875 12.04C21.875 12.482 21.755 12.868 21.514 13.197C21.276 13.526 20.944 13.771 20.518 13.934L22.188 16.952V17.01H21.182L19.639 14.134V14.133ZM17.578 13.367H19.409C19.875 13.367 20.244 13.247 20.518 13.005C20.794 12.765 20.933 12.442 20.933 12.039C20.933 11.599 20.801 11.262 20.537 11.028C20.277 10.793 19.899 10.675 19.404 10.671H17.578V13.367V13.367Z" fill="white" fill-opacity="0.9"/></svg>
